packages/symbols/svgs/solid/crown-solid.svg

<svg width="16" height="16" viewBox="0 0 16 16" fill="none" xmlns="http://www.w3.org/2000/svg">
<g clip-path="url(#clip0_834_2921)">
<path fill-rule="evenodd" clip-rule="evenodd" d="M1.915 6.483C1.86036 6.49173 1.80527 6.49741 1.75 6.5C1.40388 6.5 1.06554 6.39736 0.777752 6.20507C0.489966 6.01278 0.265664 5.73947 0.133211 5.4197C0.000757425 5.09993 -0.0338984 4.74806 0.0336257 4.40859C0.10115 4.06913 0.267821 3.75731 0.512563 3.51256C0.757305 3.26782 1.06913 3.10115 1.40859 3.03363C1.74806 2.9661 2.09993 3.00076 2.4197 3.13321C2.73947 3.26566 3.01278 3.48997 3.20507 3.77775C3.39736 4.06554 3.5 4.40388 3.5 4.75C3.498 5.03916 3.42338 5.32319 3.283 5.576L5.751 8.044L7.112 3.25C6.78116 3.05517 6.52356 2.75695 6.37893 2.40129C6.23429 2.04563 6.21063 1.65227 6.31159 1.28184C6.41256 0.911406 6.63255 0.584457 6.93765 0.351381C7.24276 0.118304 7.61605 -0.00796369 8 -0.00796369C8.38395 -0.00796369 8.75724 0.118304 9.06235 0.351381C9.36745 0.584457 9.58744 0.911406 9.68841 1.28184C9.78937 1.65227 9.76571 2.04563 9.62107 2.40129C9.47644 2.75695 9.21884 3.05518 8.888 3.25L10.249 8.044L12.717 5.576C12.5766 5.32319 12.502 5.03916 12.5 4.75C12.5 4.40388 12.6026 4.06554 12.7949 3.77775C12.9872 3.48997 13.2605 3.26566 13.5803 3.13321C13.9001 3.00076 14.2519 2.9661 14.5914 3.03363C14.9309 3.10115 15.2427 3.26782 15.4874 3.51256C15.7322 3.75731 15.8989 4.06913 15.9664 4.40859C16.0339 4.74806 15.9992 5.09993 15.8668 5.4197C15.7343 5.73947 15.51 6.01278 15.2222 6.20507C14.9345 6.39736 14.5961 6.5 14.25 6.5C14.1947 6.49741 14.1396 6.49173 14.085 6.483L12.462 12L3.538 12L1.915 6.483ZM2 14L14 14C14.5523 14 15 14.4477 15 15C15 15.5523 14.5523 16 14 16L2 16C1.44771 16 0.999999 15.5523 0.999999 15C0.999999 14.4477 1.44771 14 2 14Z" fill="black"/>
</g>
<defs>
<clipPath id="clip0_834_2921">
<rect width="16" height="16" fill="white"/>
</clipPath>
</defs>
</svg>

<svg width="16" height="16" viewBox="0 0 16 16" xmlns="http://www.w3.org/2000/svg"><g clip-path="url(#a)"><path fill-rule="evenodd" clip-rule="evenodd" d="M1.915 6.483c-.055.009-.11.014-.165.017A1.75 1.75 0 1 1 3.5 4.75c-.002.29-.077.573-.217.826l2.468 2.468L7.112 3.25a1.75 1.75 0 1 1 1.776 0l1.361 4.794 2.468-2.468a1.726 1.726 0 0 1-.217-.826 1.75 1.75 0 1 1 1.75 1.75 1.485 1.485 0 0 1-.165-.017L12.462 12H3.538L1.915 6.483ZM2 14h12a1 1 0 1 1 0 2H2a1 1 0 1 1 0-2Z"/></g><defs><clipPath id="a"><path fill="#fff" d="M0 0h16v16H0z"/></clipPath></defs></svg>
